src/img/starbase-b.svg

<svg width="837" height="102" viewBox="0 0 837 102" fill="none" xmlns="http://www.w3.org/2000/svg">
<mask id="mask0" style="mask-type:alpha" maskUnits="userSpaceOnUse" x="212" y="83" width="56" height="18">
<path d="M212.733 100.896L240.325 83.5227L267.917 100.896C249.522 97.2336 231.127 97.2336 212.733 100.896Z" fill="white"/>
</mask>
<g mask="url(#mask0)">
<path fill-rule="evenodd" clip-rule="evenodd" d="M212.733 100.896L240.325 83.5227L267.917 100.896C249.522 97.2336 231.127 97.2336 212.733 100.896Z" fill="#F3F7F9"/>
</g>
<path fill-rule="evenodd" clip-rule="evenodd" d="M424.613 100.896L487.973 100.896C502.281 100.896 512.159 92.8132 512.159 81.1069L512.159 64.6626C512.159 57.8341 508.071 52.8174 500.066 49.6115C507.22 46.1279 510.796 41.1111 510.796 34.5609L510.796 20.3465C510.796 8.64023 500.918 0.5577 486.611 0.5577L424.613 0.5577L424.613 100.896ZM449.14 19.2319L480.479 19.2319C484.396 19.2319 486.27 20.7646 486.27 23.9701L486.27 35.9549C486.27 39.8567 485.078 40.693 480.479 40.693L449.14 40.693L449.14 19.2319ZM449.14 58.5309L479.798 58.5309C485.418 58.5309 487.633 59.0882 487.633 62.9903L487.633 77.4838C487.633 80.6892 485.759 82.222 481.842 82.222L449.14 82.222L449.14 58.5309ZM598.001 78.3202L606.006 100.896L632.407 100.896L592.892 0.5577L564.278 0.5577L524.763 100.896L550.141 100.896L558.316 78.3202L598.001 78.3202ZM591.359 59.3673L565.129 59.3673L578.414 22.5764L591.359 59.3673ZM729.32 31.4954L729.32 19.7888C729.32 8.08266 719.441 0 705.134 0L669.026 0C654.719 0 644.84 8.08266 644.84 19.7888L644.84 36.7912C644.84 47.382 655.059 54.2105 669.367 56.8587L701.047 62.4332C705.134 63.1299 706.837 64.2449 706.837 67.1712L706.837 77.7625C706.837 80.9678 704.964 82.5005 701.047 82.5005L674.476 82.5005C670.559 82.5005 668.685 80.9678 668.685 77.7625L668.685 68.8435L644.84 68.8435L644.84 81.6646C644.84 93.3709 654.719 101.453 669.026 101.453L707.178 101.453C721.485 101.453 731.364 93.3709 731.364 81.6646L731.364 63.5476C731.364 52.9565 721.145 46.1279 706.837 43.4803L675.158 37.9058C671.07 37.2089 669.367 36.0943 669.367 33.1676L669.367 23.691C669.367 20.4856 671.24 18.9529 675.158 18.9529L699.684 18.9529C703.601 18.9529 705.475 20.4856 705.475 23.691L705.475 31.4954L729.32 31.4954ZM756.401 100.896L836.623 100.896L836.623 81.9432L780.928 81.9432L780.928 59.0882L826.063 59.0882L826.063 40.1353L780.928 40.1353L756.401 40.1353L756.401 100.896ZM780.928 19.5102L836.623 19.5102L836.623 0.5577L756.401 0.5577L756.401 19.5102L780.928 19.5102Z" fill="#F3F7F9"/>
<path fill-rule="evenodd" clip-rule="evenodd" d="M382.203 62.8509C392.423 60.4819 398.895 53.3747 398.895 43.8984L398.895 20.3465C398.895 8.64023 389.017 0.5577 374.709 0.5577L312.201 0.5577L312.201 100.896L336.727 100.896L336.727 63.6868L356.485 63.6868L376.242 100.896L402.642 100.896L382.203 62.8509ZM84.4798 31.4954L84.4798 19.7888C84.4798 8.08266 74.6012 0 60.2936 0L24.1857 0C9.87855 0 7.7925e-08 8.08266 1.90784e-07 19.7888L3.54704e-07 36.7912C4.5681e-07 47.382 10.219 54.2105 24.5262 56.8587L56.2061 62.4332C60.2936 63.1299 61.9971 64.2449 61.9971 67.1712L61.9971 77.7625C61.9971 80.9678 60.1235 82.5005 56.2061 82.5005L29.6358 82.5005C25.7182 82.5005 23.8448 80.9678 23.8448 77.7625L23.8448 68.8435L6.6372e-07 68.8435L7.87329e-07 81.6646C9.00189e-07 93.3709 9.87855 101.453 24.1857 101.453L62.3377 101.453C76.6447 101.453 86.5234 93.3709 86.5234 81.6646L86.5234 63.5476C86.5234 52.9565 76.3042 46.1279 61.9971 43.4803L30.3169 37.9058C26.2293 37.2089 24.5262 36.0943 24.5262 33.1676L24.5262 23.691C24.5262 20.4856 26.3997 18.9529 30.3169 18.9529L54.8435 18.9529C58.7611 18.9529 60.6345 20.4856 60.6345 23.691L60.6345 31.4954L84.4798 31.4954ZM189.228 0.5577L100.66 0.5577L100.66 19.2319L132.68 19.2319L132.68 100.896L157.207 100.896L157.207 19.2319L189.228 19.2319L189.228 0.5577ZM267.917 100.896L294.317 100.896L254.802 0.5577L226.188 0.5577L186.673 100.896L212.051 100.896C221.504 74.7906 230.895 48.6877 240.325 22.5764C249.511 48.6854 258.664 74.8026 267.917 100.896ZM374.368 40.2748C374.368 43.4803 372.495 45.013 368.578 45.013L336.727 45.013L336.727 19.5102L368.578 19.5102C372.495 19.5102 374.368 21.0436 374.368 24.2487L374.368 40.2748Z" fill="#F3F7F9"/>
</svg>

<svg width="837" height="102" fill="none" xmlns="http://www.w3.org/2000/svg"><mask id="a" style="mask-type:alpha" maskUnits="userSpaceOnUse" x="212" y="83" width="56" height="18"><path d="m212.733 100.896 27.592-17.373 27.592 17.373c-18.395-3.662-36.79-3.662-55.184 0Z" fill="#fff"/></mask><g mask="url(#a)"><path fill-rule="evenodd" clip-rule="evenodd" d="m212.733 100.896 27.592-17.373 27.592 17.373c-18.395-3.662-36.79-3.662-55.184 0Z" fill="#F3F7F9"/></g><path fill-rule="evenodd" clip-rule="evenodd" d="M424.613 100.896h63.36c14.308 0 24.186-8.083 24.186-19.79V64.664c0-6.829-4.088-11.846-12.093-15.051 7.154-3.484 10.73-8.5 10.73-15.051V20.346c0-11.706-9.878-19.788-24.185-19.788h-61.998v100.338Zm24.527-81.664h31.339c3.917 0 5.791 1.533 5.791 4.738v11.985c0 3.902-1.192 4.738-5.791 4.738H449.14V19.232Zm0 39.299h30.658c5.62 0 7.835.557 7.835 4.46v14.493c0 3.205-1.874 4.738-5.791 4.738H449.14V58.531Zm148.861 19.79 8.005 22.575h26.401L592.892.558h-28.614l-39.515 100.338h25.378l8.175-22.576h39.685Zm-6.642-18.954h-26.23l13.285-36.79 12.945 36.79ZM729.32 31.495V19.79C729.32 8.083 719.441 0 705.134 0h-36.108c-14.307 0-24.186 8.083-24.186 19.789V36.79c0 10.591 10.219 17.42 24.527 20.068l31.68 5.574c4.087.697 5.79 1.812 5.79 4.738v10.591c0 3.206-1.873 4.739-5.79 4.739h-26.571c-3.917 0-5.791-1.533-5.791-4.739v-8.918H644.84v12.82c0 11.707 9.879 19.789 24.186 19.789h38.152c14.307 0 24.186-8.082 24.186-19.788V63.548c0-10.592-10.219-17.42-24.527-20.068l-31.679-5.574c-4.088-.697-5.791-1.812-5.791-4.738V23.69c0-3.205 1.873-4.738 5.791-4.738h24.526c3.917 0 5.791 1.533 5.791 4.738v7.804h23.845Zm27.081 69.401h80.222V81.943h-55.695V59.088h45.135V40.135h-69.662v60.761Zm24.527-81.386h55.695V.558h-80.222V19.51h24.527ZM382.203 62.85c10.22-2.368 16.692-9.475 16.692-18.952V20.346c0-11.706-9.878-19.788-24.186-19.788h-62.508v100.338h24.526v-37.21h19.758l19.757 37.21h26.4l-20.439-38.045ZM84.48 31.496V19.79C84.48 8.083 74.6 0 60.294 0H24.186C9.879 0 0 8.083 0 19.789V36.79c0 10.591 10.219 17.42 24.526 20.068l31.68 5.574c4.088.697 5.791 1.812 5.791 4.738v10.591c0 3.206-1.873 4.739-5.79 4.739H29.635c-3.918 0-5.791-1.533-5.791-4.739v-8.918H0v12.82c0 11.707 9.879 19.789 24.186 19.789h38.152c14.307 0 24.185-8.082 24.185-19.788V63.548c0-10.592-10.219-17.42-24.526-20.068l-31.68-5.574c-4.088-.697-5.79-1.812-5.79-4.738V23.69c0-3.205 1.873-4.738 5.79-4.738h24.526c3.918 0 5.791 1.533 5.791 4.738v7.804H84.48ZM189.228.558H100.66v18.674h32.02v81.664h24.527V19.232h32.021V.558Zm78.689 100.338h26.4L254.802.558h-28.614l-39.515 100.338h25.378c9.453-26.105 18.844-52.208 28.274-78.32 9.186 26.11 18.339 52.227 27.592 78.32Zm106.451-60.621c0 3.205-1.873 4.738-5.79 4.738h-31.851V19.51h31.851c3.917 0 5.79 1.534 5.79 4.739v16.026Z" fill="#F3F7F9"/></svg>
